X:1
T:Nellie Lost and Found
M:4/4
L:1/4
K:Ab
 c3/2 B/2 A3/2 E/2| F3/4 G/4 A3/4 F/4 E A| B/2 B3/2 B3/2 c/2| B3 z|\
 c3/2 B/2 A3/2 E/2| F3/4 G/4 A3/4 F/4 E d| c/2 A3/2 A3/2 G/2| A3 z|\
 G A B3/2 G/2| A3/4 G/4 A3/4 B/4 c2| c d e3/2 c/2| B3/4 A/4 G3/4 A/4 B2|\
 c3/2 B/2 A3/2 E/2| F3/4 G/4 A3/4 F/4 E d| c/2 A3/2 A3/2 G/2| A3 z|\
 d3/2 d/2 d f| e c c/2 A3/2| B3/2 B/2 B c| B3 z| c3/2 B/2 A3/2 E/2|\
 F3/4 G/4 A3/4 F/4 E d| c/2 A3/2 A3/2 G/2| A3 z|
